X: 13823
T: Four Province Fling, The
R: hornpipe
M: 4/4
K: Adorian
BG|ABcA ~E3F|~G2BG DGBG|ABcA EAe=f|edcB cA:|AB||
ce~e2 d2ed|ce~e2 dBGB|ce~e2 d2cd|edcB cAAB|
ce~e2 d2ed|ce~e2 dBGB|AcBd cdef|edcB A2||

